icons/list-settings-fill.svg

<svg xmlns="http://www.w3.org/2000/svg" width="24" height="24" fill="none"><g clip-path="url(#a)"><g><path fill="#121212" d="M2 18H9V20H2V18ZM2 11H11V13H2V11ZM2 4H22V6H2V4ZM20.674 13.025L21.83 12.634L22.83 14.366L21.914 15.171C22.0293 15.7177 22.0293 16.2823 21.914 16.829L22.83 17.634L21.83 19.366L20.674 18.975C20.264 19.345 19.776 19.63 19.239 19.805L19 21H17L16.76 19.804C16.2293 19.6306 15.7408 19.3478 15.326 18.974L14.17 19.366L13.17 17.634L14.086 16.829C13.9707 16.2823 13.9707 15.7177 14.086 15.171L13.17 14.366L14.17 12.634L15.326 13.025C15.736 12.655 16.224 12.37 16.761 12.195L17 11H19L19.24 12.196C19.776 12.37 20.264 12.656 20.674 13.026V13.025ZM18 17C18.2652 17 18.5196 16.8946 18.7071 16.7071C18.8946 16.5196 19 16.2652 19 16C19 15.7348 18.8946 15.4804 18.7071 15.2929C18.5196 15.1054 18.2652 15 18 15C17.7348 15 17.4804 15.1054 17.2929 15.2929C17.1054 15.4804 17 15.7348 17 16C17 16.2652 17.1054 16.5196 17.2929 16.7071C17.4804 16.8946 17.7348 17 18 17Z"/></g></g><defs><clipPath id="a"><rect width="24" height="24" fill="white"/></clipPath></defs></svg>

<svg width="24" height="24" fill="none" xmlns="http://www.w3.org/2000/svg"><g clip-path="url(#a)"><path d="M2 18h7v2H2v-2Zm0-7h9v2H2v-2Zm0-7h20v2H2V4Zm18.674 9.025 1.156-.391 1 1.732-.916.805a4.017 4.017 0 0 1 0 1.658l.916.805-1 1.732-1.156-.391c-.41.37-.898.655-1.435.83L19 21h-2l-.24-1.196a3.996 3.996 0 0 1-1.434-.83l-1.156.392-1-1.732.916-.805a4.017 4.017 0 0 1 0-1.658l-.916-.805 1-1.732 1.156.391c.41-.37.898-.655 1.435-.83L17 11h2l.24 1.196c.536.174 1.024.46 1.434.83v-.001ZM18 17a1 1 0 1 0 0-2 1 1 0 0 0 0 2Z" /></g><defs><clipPath id="a"><path fill="#fff" d="M0 0h24v24H0z"/></clipPath></defs></svg>
